resources/svg/major-buy-button-horizontal-layout.svg

<svg xmlns="http://www.w3.org/2000/svg" viewBox="0 0 20 20" fill="currentColor"><path d="M3 3h1v-2h-1.5a1.5 1.5 0 0 0-1.5 1.5v1.5h2v-1zm14 0v1h2v-1.5a1.5 1.5 0 0 0-1.5-1.5h-1.5v2h1zm-14 13v1h1v2h-1.5a1.5 1.5 0 0 1-1.5-1.5v-1.5h2zm14 1h-1v2h1.5a1.5 1.5 0 0 0 1.5-1.5v-1.5h-2v1zm-8-3v-8h-6v8h6zm0 5h-3v-2h3v2zm-3-16h3v-2h-3v2zm8 16h-3v-2h3v2zm-3-16h3v-2h-3v2zm6 5h-6v-2h6v2zm-6 4h4v-2h-4v2z"/></svg>

<svg xmlns="http://www.w3.org/2000/svg" viewBox="0 0 20 20" fill="currentColor"><path d="M3 3h1V1H2.5A1.5 1.5 0 001 2.5V4h2V3zM17 3v1h2V2.5A1.5 1.5 0 0017.5 1H16v2h1zM3 16v1h1v2H2.5A1.5 1.5 0 011 17.5V16h2zM17 17h-1v2h1.5a1.5 1.5 0 001.5-1.5V16h-2v1zM9 14V6H3v8h6zM9 19H6v-2h3v2zM6 3h3V1H6v2zM14 19h-3v-2h3v2zM11 3h3V1h-3v2zM17 8h-6V6h6v2zM11 12h4v-2h-4v2z" fill="#5C5F62"/></svg>
